icons/file-with-itens-filled.svg

<svg xmlns="http://www.w3.org/2000/svg" width="24" height="24" viewBox="0 0 24 24">
    <path fill="#3A3A47" fill-rule="evenodd" d="M11.999 2L12 7.998c0 1.358.667 2.025 2 2 1.196-.023 3.195-.025 5.999-.007L20 20c0 1.273-.607 1.938-1.822 1.996L18 22H6.002c-1.274 0-1.94-.607-1.998-1.822L4 20V4c0-1.273.607-1.938 1.822-1.996L6 2h5.999zM15 17H9c-.667 0-1 .333-1 1s.333 1 1 1h6c.667 0 1-.333 1-1s-.333-1-1-1zm0-4H9.001c-.667 0-1 .333-1.001 1 0 .667.333 1 1 1h6c.667 0 1-.333 1-1s-.333-1-1-1zm-5-4h-.999c-.667 0-1 .333-1.001 1 0 .667.333 1 1 1h1c.667 0 1-.333 1-1s-.333-1-1-1zm4.84-6.165l.156.162 4.007 4.006c.426.379.698.71.817.994H14V2.185c.252.125.531.342.84.651z"/>
</svg>

<svg width="24" height="24" viewBox="0 0 24 24" fill="none" xmlns="http://www.w3.org/2000/svg">
<path d="M19.82 7.998H14V2.184C14.293 2.33 14.625 2.601 14.996 2.997L19.003 7.003C19.429 7.383 19.702 7.713 19.821 7.998H19.82ZM20 9.99V20C20 21.333 19.333 22 18 22H6.002C4.667 22 4 21.334 4 20V4C4 2.667 4.667 2 6 2H12V7.998C12 9.356 12.667 10.023 14 9.998C15.196 9.975 17.196 9.973 20 9.991V9.99ZM9 15H15C15.667 15 16 14.667 16 14C16 13.333 15.667 13 15 13H9.001C8.334 13 8.001 13.333 8 14C8 14.667 8.333 15 9 15ZM9 11H10C10.667 11 11 10.667 11 10C11 9.333 10.667 9 10 9H9.001C8.334 9 8.001 9.333 8 10C8 10.667 8.333 11 9 11ZM9 19H15C15.667 19 16 18.667 16 18C16 17.333 15.667 17 15 17H9C8.333 17 8 17.333 8 18C8 18.667 8.333 19 9 19Z" fill="#3A3A47"/>
</svg>
